X: 6
T: Jenny's Chickens
R: reel
M: 4/4
L: 1/8
K: Bmin
|:Tf2 Bb fBde|Tf2 Bb eAce|Tf2 Bb fBde|(f/e/f/g/ a)f eAce:|
|:fBdB fBde|fBdB eAce|fBdB fBde|(f/e/f/g/ a)f eAce:|


Tune 756	Setting 13868

